dist/img/arrow_2.svg

<svg width="432" height="276" viewBox="0 0 432 276" fill="none" xmlns="http://www.w3.org/2000/svg">
<path d="M392.359 67.7911C390.406 65.8385 387.24 65.8385 385.288 67.7911L353.468 99.6109C351.515 101.564 351.515 104.729 353.468 106.682C355.421 108.635 358.586 108.635 360.539 106.682L388.823 78.3977L417.107 106.682C419.06 108.635 422.226 108.635 424.179 106.682C426.131 104.729 426.131 101.564 424.179 99.611L392.359 67.7911ZM11.1421 146.584C23.7347 180.121 54.531 203.066 92.5265 216.051C130.58 229.055 176.528 232.339 220.834 226.091C265.127 219.845 308.212 204.009 340.343 178.335C372.586 152.571 393.823 116.838 393.823 71.3267L383.823 71.3267C383.823 113.316 364.373 146.333 334.1 170.523C303.716 194.802 262.456 210.123 219.437 216.189C176.431 222.254 132.098 219.006 95.7603 206.588C59.3651 194.15 31.6614 172.783 20.5039 143.069L11.1421 146.584Z" fill="#306990"/>
</svg>

<svg width="432" height="276" fill="none" xmlns="http://www.w3.org/2000/svg"><path d="M392.359 67.791a5 5 0 00-7.071 0l-31.82 31.82a5 5 0 107.071 7.071l28.284-28.284 28.284 28.284a5 5 0 007.072-7.071l-31.82-31.82zM11.142 146.584c12.593 33.537 43.389 56.482 81.385 69.467 38.053 13.004 84.001 16.288 128.307 10.04 44.293-6.246 87.378-22.082 119.509-47.756 32.243-25.764 53.48-61.497 53.48-107.008h-10c0 41.989-19.45 75.006-49.723 99.196-30.384 24.279-71.644 39.6-114.663 45.666-43.006 6.065-87.339 2.817-123.677-9.601-36.395-12.438-64.099-33.805-75.256-63.519l-9.362 3.515z" fill="#306990"/></svg>
